Страховая/img/svg/secStep3.svg

<svg width="112" height="112" viewBox="0 0 112 112" fill="none" xmlns="http://www.w3.org/2000/svg">
<path d="M30.3747 24.8159C48.5118 14.7612 68.5648 16.9461 84.091 32.4723C99.6172 47.9985 97.4012 73.0116 81.8313 88.5815C66.2614 104.151 32.1603 83.7792 16.6341 68.253C1.10791 52.7268 9.93857 36.1451 30.3747 24.8159Z" fill="#E7F1F2"/>
<path d="M50.4123 77.9681C49.2603 77.9681 48.0443 77.8827 46.7643 77.7121C45.4843 77.5841 44.247 77.3921 43.0523 77.1361C41.8576 76.8801 40.7696 76.6027 39.7883 76.3041C38.807 76.0054 38.039 75.7281 37.4843 75.4721L39.3403 67.5361C40.4496 68.0054 41.8576 68.5174 43.5643 69.0721C45.3136 69.5841 47.4683 69.8401 50.0283 69.8401C52.9723 69.8401 55.127 69.2854 56.4923 68.1761C57.8576 67.0667 58.5403 65.5734 58.5403 63.6961C58.5403 62.5441 58.2843 61.5841 57.7723 60.8161C57.303 60.0054 56.6416 59.3654 55.7883 58.8961C54.935 58.3841 53.911 58.0427 52.7163 57.8721C51.5643 57.6587 50.327 57.5521 49.0043 57.5521H45.2923V49.8721H49.5163C50.455 49.8721 51.351 49.7867 52.2043 49.6161C53.1003 49.4454 53.8896 49.1681 54.5723 48.7841C55.255 48.3574 55.7883 47.8027 56.1723 47.1201C56.599 46.3947 56.8123 45.4987 56.8123 44.4321C56.8123 43.6214 56.6416 42.9174 56.3003 42.3201C55.959 41.7227 55.511 41.2321 54.9563 40.8481C54.4443 40.4641 53.8256 40.1867 53.1003 40.0161C52.4176 39.8027 51.7136 39.6961 50.9883 39.6961C49.1536 39.6961 47.447 39.9734 45.8683 40.5281C44.3323 41.0827 42.9243 41.7654 41.6443 42.5761L38.2523 35.6001C38.935 35.1734 39.7243 34.7254 40.6203 34.2561C41.559 33.7867 42.583 33.3601 43.6923 32.9761C44.8016 32.5921 45.975 32.2721 47.2123 32.0161C48.4923 31.7601 49.8363 31.6321 51.2443 31.6321C53.847 31.6321 56.087 31.9521 57.9643 32.5921C59.8843 33.1894 61.463 34.0641 62.7003 35.2161C63.9376 36.3254 64.855 37.6481 65.4523 39.1841C66.0496 40.6774 66.3483 42.3201 66.3483 44.1121C66.3483 45.8614 65.8576 47.5681 64.8763 49.2321C63.895 50.8534 62.5723 52.0907 60.9083 52.9441C63.2123 53.8827 64.983 55.2907 66.2203 57.1681C67.5003 59.0027 68.1403 61.2214 68.1403 63.8241C68.1403 65.8721 67.799 67.7707 67.1163 69.5201C66.4336 71.2267 65.367 72.7201 63.9163 74.0001C62.4656 75.2374 60.6096 76.2187 58.3483 76.9441C56.1296 77.6267 53.4843 77.9681 50.4123 77.9681Z" fill="#5FB5BF"/>
</svg>

<svg width="112" height="112" fill="none" xmlns="http://www.w3.org/2000/svg"><path d="M30.375 24.816c18.137-10.055 38.19-7.87 53.716 7.656 15.526 15.526 13.31 40.54-2.26 56.11-15.57 15.569-49.67-4.803-65.197-20.329C1.108 52.727 9.94 36.145 30.374 24.816z" fill="#E7F1F2"/><path d="M50.412 77.968a27.59 27.59 0 01-3.648-.256 33.722 33.722 0 01-3.712-.576 40.179 40.179 0 01-3.264-.832c-.981-.299-1.749-.576-2.304-.832l1.856-7.936c1.11.47 2.518.981 4.224 1.536 1.75.512 3.904.768 6.464.768 2.944 0 5.099-.555 6.464-1.664 1.366-1.11 2.048-2.603 2.048-4.48 0-1.152-.256-2.112-.768-2.88a5.055 5.055 0 00-1.984-1.92c-.853-.512-1.877-.853-3.072-1.024a20.383 20.383 0 00-3.712-.32h-3.712v-7.68h4.224c.939 0 1.835-.085 2.688-.256.896-.17 1.686-.448 2.368-.832a4.597 4.597 0 001.6-1.664c.427-.725.64-1.621.64-2.688 0-.81-.17-1.515-.512-2.112a4.45 4.45 0 00-1.344-1.472c-.512-.384-1.13-.661-1.856-.832a7.038 7.038 0 00-2.112-.32c-1.834 0-3.541.277-5.12.832a21.526 21.526 0 00-4.224 2.048L38.252 35.6a36.111 36.111 0 012.368-1.344c.939-.47 1.963-.896 3.072-1.28a28.253 28.253 0 013.52-.96 20.524 20.524 0 014.032-.384c2.603 0 4.843.32 6.72.96 1.92.597 3.499 1.472 4.736 2.624a10.25 10.25 0 012.752 3.968c.598 1.493.896 3.136.896 4.928 0 1.75-.49 3.456-1.472 5.12a9.774 9.774 0 01-3.968 3.712c2.304.939 4.075 2.347 5.312 4.224 1.28 1.835 1.92 4.053 1.92 6.656 0 2.048-.341 3.947-1.024 5.696-.682 1.707-1.749 3.2-3.2 4.48-1.45 1.237-3.306 2.219-5.568 2.944-2.218.683-4.864 1.024-7.936 1.024z" fill="#5FB5BF"/></svg>
